static/images/tech-icons/dark/terraform.svg

<svg height="28" viewBox="0 0 113 28" width="113" xmlns="http://www.w3.org/2000/svg"><g><path d="m36.801 8.793h-4.0005v-2.3895h10.7145v2.3895h-4.005v11.9385h-2.7"/><path d="m45.9855 18.7965c1.08675-.0054 2.1663-.17235 3.204-.495l.4095 1.98c-1.23525.4455-2.5389.6705-3.852.6660662-3.2895 0-4.4325-1.5255662-4.4325-4.0500662v-2.7675c0-2.214.99-4.086 4.347-4.086s4.1085 1.9575 4.1085 4.2165v2.25h-5.85v.54c.0225 1.251.4725 1.746 2.0655 1.746zm-2.043-4.3965h3.3345v-.531c0-.99-.3015-1.6785-1.593-1.6785s-1.7415.6885-1.7415 1.6785zm12.843-1.9485c-.9666.4365-1.89765.9459-2.7855 1.5255v6.75h-2.6235v-10.4715h2.214l.171 1.161c.85365-.5778 1.77975-1.04085 2.754-1.377zm6.408 0c-.963.4365-1.8918.94635-2.7765 1.5255v6.75h-2.6235v-10.4715h2.214l.171 1.161c.85365-.5778 1.77975-1.04085 2.754-1.377zm8.7795 8.28h-2.151l-.1935-.711c-.9279.6039-2.0115.9261-3.1185.927-1.9125 0-2.7315-1.314-2.7315-3.1185 0-2.1285.927-2.9475 3.0555-2.9475h2.5155v-1.098c0-1.161-.324-1.5705-2.0025-1.5705-.9765.0108-1.9485.1197-2.9025.324l-.324-2.0025c1.1727-.324 2.3832-.4905 3.6-.495 3.2895 0 4.2615 1.161 4.2615 3.7845zm-2.6235-3.96h-1.935c-.8595 0-1.098.2385-1.098 1.0305s.2385 1.053 1.053 1.053c.6948-.0108 1.3761-.1962 1.98-.54zm10.6875-8.9055c-.495-.10665-1.0008-.1638-1.5075-.171-1.0305 0-1.1835.45-1.1835 1.2465v1.314h2.6685l-.1485 2.088h-2.5155v8.388h-2.6235v-8.388h-1.6785v-2.088h1.6785v-1.4625c0-2.1735 1.0125-3.24905238 3.3345-3.24905238.7605-.00264762 1.5174.09905238 2.25.30155238zm5.121 13.0815c-3.6 0-4.5585-1.98-4.5585-4.131v-2.646c0-2.151.9675-4.131 4.5585-4.131s4.5585155 1.98 4.5585155 4.131v2.646c.0044845 2.151-.9675155 4.131-4.5585155 4.131zm0-8.6715c-1.3995 0-1.935.6255-1.935 1.8v2.817c0 1.1835.54 1.8 1.935 1.8s1.935-.6255 1.935-1.8v-2.808c0-1.1835-.5355-1.809-1.935-1.809zm11.313.1755c-.963.4365-1.8918.94635-2.7765 1.5255v6.75h-2.6235v-10.4715h2.214l.171 1.161c.85365-.5778 1.7793-1.04085 2.754-1.377zm7.209 8.28v-7.3125c0-.558-.2385-.837-.837-.837-.96165.1143-1.89.4203-2.7315.9v7.2495h-2.6235v-10.476h2.0025l.2565.9c1.3077-.6615 2.7396-1.04175 4.203-1.116.82935-.0783 1.62.369 1.98 1.1205 1.3095-.6705 2.7468-1.053 4.2165-1.1205 1.7415 0 2.367 1.224 2.367 3.096v7.596h-2.6235v-7.3125c0-.558-.2385-.837-.837-.837-.963.1062-1.8936.41265-2.7315.9v7.2495z"/><path d="m16.38 17.6085 7.38-4.257v-8.5275l-7.38 4.266"/><path d="m8.19 4.824 7.38 4.266v8.5185l-7.38-4.2615"/><path d="m0 8.5905 7.38 4.2615v-8.523l-7.38-4.2615m8.19 22.7385 7.38 4.2615v-8.523l-7.38-4.2615"/></g></svg>

<?xml version="1.0" encoding="UTF-8"?>
<svg width="113px" height="28px" viewBox="0 0 113 28" version="1.1" xmlns="http://www.w3.org/2000/svg" xmlns:xlink="http://www.w3.org/1999/xlink">
    <title>terraform</title>
    <g id="terraform" stroke="none" stroke-width="1" fill="none" fill-rule="evenodd">
        <g id="Group" fill="#000000" fill-rule="nonzero">
            <polyline id="Path" points="36.801 8.793 32.8005 8.793 32.8005 6.4035 43.515 6.4035 43.515 8.793 39.51 8.793 39.51 20.7315 36.81 20.7315"></polyline>
            <path d="M45.9855,18.7965 C47.07225,18.7911 48.1518,18.62415 49.1895,18.3015 L49.599,20.2815 C48.36375,20.727 47.0601,20.952 45.747,20.9475662 C42.4575,20.9475662 41.3145,19.422 41.3145,16.8975 L41.3145,14.13 C41.3145,11.916 42.3045,10.044 45.6615,10.044 C49.0185,10.044 49.77,12.0015 49.77,14.2605 L49.77,16.5105 L43.92,16.5105 L43.92,17.0505 C43.9425,18.3015 44.3925,18.7965 45.9855,18.7965 Z M43.9425,14.4 L47.277,14.4 L47.277,13.869 C47.277,12.879 46.9755,12.1905 45.684,12.1905 C44.3925,12.1905 43.9425,12.879 43.9425,13.869 L43.9425,14.4 L43.9425,14.4 Z M56.7855,12.4515 C55.8189,12.888 54.88785,13.3974 54,13.977 L54,20.727 L51.3765,20.727 L51.3765,10.2555 L53.5905,10.2555 L53.7615,11.4165 C54.61515,10.8387 55.54125,10.37565 56.5155,10.0395 L56.7855,12.4515 Z M63.1935,12.4515 C62.2305,12.888 61.3017,13.39785 60.417,13.977 L60.417,20.727 L57.7935,20.727 L57.7935,10.2555 L60.0075,10.2555 L60.1785,11.4165 C61.03215,10.8387 61.95825,10.37565 62.9325,10.0395 L63.1935,12.4515 Z M71.973,20.7315 L69.822,20.7315 L69.6285,20.0205 C68.7006,20.6244 67.617,20.9466 66.51,20.9475 C64.5975,20.9475 63.7785,19.6335 63.7785,17.829 C63.7785,15.7005 64.7055,14.8815 66.834,14.8815 L69.3495,14.8815 L69.3495,13.7835 C69.3495,12.6225 69.0255,12.213 67.347,12.213 C66.3705,12.2238 65.3985,12.3327 64.4445,12.537 L64.1205,10.5345 C65.2932,10.2105 66.5037,10.044 67.7205,10.0395 C71.01,10.0395 71.982,11.2005 71.982,13.824 L71.973,20.7315 L71.973,20.7315 Z M69.3495,16.7715 L67.4145,16.7715 C66.555,16.7715 66.3165,17.01 66.3165,17.802 C66.3165,18.594 66.555,18.855 67.3695,18.855 C68.0643,18.8442 68.7456,18.6588 69.3495,18.315 L69.3495,16.7715 L69.3495,16.7715 Z M80.037,7.866 C79.542,7.75935 79.0362,7.7022 78.5295,7.695 C77.499,7.695 77.346,8.145 77.346,8.9415 L77.346,10.2555 L80.0145,10.2555 L79.866,12.3435 L77.3505,12.3435 L77.3505,20.7315 L74.727,20.7315 L74.727,12.3435 L73.0485,12.3435 L73.0485,10.2555 L74.727,10.2555 L74.727,8.793 C74.727,6.6195 75.7395,5.54394762 78.0615,5.54394762 C78.822,5.5413 79.5789,5.643 80.3115,5.8455 L80.037,7.866 L80.037,7.866 Z M85.158,20.9475 C81.558,20.9475 80.5995,18.9675 80.5995,16.8165 L80.5995,14.1705 C80.5995,12.0195 81.567,10.0395 85.158,10.0395 C88.749,10.0395 89.7165155,12.0195 89.7165155,14.1705 L89.7165155,16.8165 C89.721,18.9675 88.749,20.9475 85.158,20.9475 Z M85.158,12.276 C83.7585,12.276 83.223,12.9015 83.223,14.076 L83.223,16.893 C83.223,18.0765 83.763,18.693 85.158,18.693 C86.553,18.693 87.093,18.0675 87.093,16.893 L87.093,14.085 C87.093,12.9015 86.5575,12.276 85.158,12.276 L85.158,12.276 Z M96.471,12.4515 C95.508,12.888 94.5792,13.39785 93.6945,13.977 L93.6945,20.727 L91.071,20.727 L91.071,10.2555 L93.285,10.2555 L93.456,11.4165 C94.30965,10.8387 95.2353,10.37565 96.21,10.0395 L96.471,12.4515 Z M103.68,20.7315 L103.68,13.419 C103.68,12.861 103.4415,12.582 102.843,12.582 C101.88135,12.6963 100.953,13.0023 100.1115,13.482 L100.1115,20.7315 L97.488,20.7315 L97.488,10.2555 L99.4905,10.2555 L99.747,11.1555 C101.0547,10.494 102.4866,10.11375 103.95,10.0395 C104.77935,9.9612 105.57,10.4085 105.93,11.16 C107.2395,10.4895 108.6768,10.107 110.1465,10.0395 C111.888,10.0395 112.5135,11.2635 112.5135,13.1355 L112.5135,20.7315 L109.89,20.7315 L109.89,13.419 C109.89,12.861 109.6515,12.582 109.053,12.582 C108.09,12.6882 107.1594,12.99465 106.3215,13.482 L106.3215,20.7315 L103.68,20.7315 L103.68,20.7315 Z" id="Shape"></path>
            <polyline id="Path" points="16.38 17.6085 23.76 13.3515 23.76 4.824 16.38 9.09"></polyline>
            <polyline id="Path" points="8.19 4.824 15.57 9.09 15.57 17.6085 8.19 13.347"></polyline>
            <path d="M0,8.5905 L7.38,12.852 L7.38,4.329 L0,0.0675 M8.19,22.806 L15.57,27.0675 L15.57,18.5445 L8.19,14.283" id="Shape"></path>
        </g>
    </g>
</svg>
